X:1
T:Vineta
T:Vineta
T:For Baritone Voice
L:1/8
Q:3/8=50
M:3/8
K:B
V:1 bass nm="Piano" snm="Pno."
V:1
 F,D,F, | B,A,G, | F,2 F, | F,2 F, | F,2 F, | A,=A,F, | E,2 E, | D,2 G, | ^E,2 G, | F,2 z | %10
 F,=D,F, | F,B,=A, | B,=A,=G, | =G,2 G, | =G,2 G, | E,=A,A, | =A,2 A, | C^G,B, | B,2 F, | F,2 z :| %20
 z3 | z3 | z3 | z3 | z3 | z F,F, | F,A,G, | ^E,G,F, | F,2 F, | C,2 z | F,2 F, | B,=A,G, | F,2 B, | %33
 B,2 B, | B,2 F, | z F,F, | F,2 F, | C,E,G, | G,CG, | F,2 F, | F,2 z | F,2 F, | E,2 E, | =D,2 D, | %44
 =C,2 C, | B,,2 B,,- | B,,3 | =G,,2 G,, | =C,2 C, | =C,2 C, | E,2 =C, | =D,3 | B,2 B, | B,2 B, | %54
 F,2 C | B,2 B, | F,2 F, | z E,E, | ^B,2 C | z E,E, | ^B,2 C | G,3 | ^A,2 z | F,D,F, | B,A,F, | %65
 F,2 F, | F,2 F, | F,2 F, | A,=A,F, | E,2 E, | D,2 G, | ^E,2 G, | F,2 z | F,=D,F, | F,B,=A, | %75
 B,=A,=G, | =G,2 G, | =G,2 G, | E,=A,A, | =A,2 A, | C^G,B, | B,2 F, | F,2 z | z3 | z3 | z3 | z3 | %87
 z3 | z F,F, | F,A,G, | ^E,G,F, | F,2 F, | C,2 z | F,2 F, | B,=A,G, | F,2 B, | B,2 B, | F,2 F, | %98
 z F,F, | F,2 F, | C,E,G, | G,CG, | F,2 F, | F,2 z |] %104

